X: 1
T:Quadriglia
C:Vincenzo De Rosa
C:Balli popolari in Abruzzo I/10
M:6/8
L:1/8
K:G
DGD|GDG DGB|d2d dcB|A2c cBA|B2G DGD|\
GDG DGB|d2d dcB|A2c cBA|G3||*
g2g|f2e f2e|d2B ddd|c2 A/B/ c2e|~d2B g2g|\
f2e f2e|d2B d2e|fed cBA|G3||**
